!!!!SEGMENT: pl-gd--ee-1638--006-002_marenzio-luca--il-quinto-libro-de-madrigalia-a-cinque-voci-lasso-vedro-io-mai.krn
!!!cenid: 15xx:884
!!!COM: Marenzio, Luca
!!!COM-rismID: pe30003955
!!!CDT: ~1553-1599/08/22
!!!CNT: Italian
!!!GTL: Il Quinto libro de madrigalia a cinque voci
!!!OTL: Lasso vedrò io mai
!!!OMV: 002
!!!PDT: 1585
!!!AGN:
!!!YEC: Copyright 2022 Narodowy Instytut Fryderyka Chopina (https://polishscores.org)
!!!YEM: License CC-BY-4.0 (https://creativecommons.org/licenses/by/4.0)
!!!SMS-siglum: PL-GD
!!!SMS-shelfmark: Ee 1638
!!!SMS-shelfwork: 006-002 G
!!!SMS-variant:
!!!SMS-altvar:
!!!NIFC-rismSourceID: 1001202747
!!!NIFC-rismChildID: 990039296
!!!NIFC-islandoraID: pl-gd:57883
!!!URL-pdf-islandora: https://repozytorium.nifc.pl/islandora/object/pl-gd%3A57883/datastream/PDF/view
!!!URL-scan: https://polish.musicsources.pl/pl/lokalizacje/galeria/klocki-introligatorskie/655 @EN{Scan on Polish Music Sources Website} @PL{Skany w portalu Dziedzictwo Muzyki Polskiej w otwartym dostępie}
!!!IIIF:
!!!ONB-nifc:
!!!AIN: 1 alto 1 bass 1 soprn 1 tenor 1 vox
!!!key: d
**kern	**text	**kern	**text	**kern	**text	**kern	**text	**kern	**text
*part1	*	*part2	*	*part3	*	*part4	*	*part5	*
*staff1	*	*staff2	*	*staff3	*	*staff4	*	*staff5	*
*I"QVINTO	*	*I"BASSO	*	*I"TENORE	*	*I"ALTO	*	*I"CANTO	*
*I'V	*	*I'B	*	*I'T	*	*I'A	*	*I'S	*
*ICvox	*	*ICvox	*	*ICvox	*	*ICvox	*	*ICvox	*
*Ivox	*	*Ibass	*	*Itenor	*	*Ialto	*	*Isoprn	*
*clefC3	*	*clefC4	*	*clefC3	*	*clefC2	*	*clefG2	*
*k[]	*	*k[]	*	*k[]	*	*k[]	*	*k[]	*
*d:	*	*d:	*	*d:	*	*d:	*	*d:	*
*M2/1	*	*M2/1	*	*M2/1	*	*M2/1	*	*M2/1	*
*met(C)	*	*met(C)	*	*met(C)	*	*met(C)	*	*met(C)	*
=1-	=1-	=1-	=1-	=1-	=1-	=1-	=1-	=1-	=1-
!!LO:TX:t=P:problem: VHV błędnie wyświetla klamrę	!	!	!	!	!	!	!	!	!
!LO:TX:a:t=Seconda parte.	!	!LO:TX:a:t=Seconda parte.	!	!LO:TX:a:t=Seconda parte.	!	!LO:TX:a:t=Seconda parte.	!	!LO:TX:a:t=Seconda parte.	!
1d	LAſ-	2r	.	2r	.	1r	.	1r	.
.	.	1G	LAſ-	1d	LAſ-	.	.	.	.
1B	-ſo	.	.	.	.	2r	.	1gg	LAſ-
.	.	2E/	-ſo	2e\	-ſo	1g\	LAſ-	.	.
=2-	=2-	=2-	=2-	=2-	=2-	=2-	=2-	=2-	=2-
1e	Laſ-	1c	Laſ-	1g	Laſ-	.	.	1ee	-ſo
.	.	.	.	.	.	2e/	-ſo	.	.
4c#X/	-ſo	4A/	-ſo	4a\	-ſo	4r	.	4r	.
4c#/	ve-	4A/	ve-	4e\	ve-	4a\	ve-	4ee\	ve-
4.c#/	-drò	4.A/	-drò	4.e\	-drò	4.a\	-drò	4.ee\	-drò
8c#/	io	8A/	io	8e\	io	8a\	io	8ee\	io
=3-	=3-	=3-	=3-	=3-	=3-	=3-	=3-	=3-	=3-
4d\	mai	4D/	mai	4a\	mai	4f\	mai	4ff\	mai
4d\	ve-	4G/	ve-	4g\	ve-	4b-X\	ve-	4dd\	ve-
4A/	-nir	4F#X/	-nir	4d\	-nir	4a\	-nir	4dd\	-nir
4B/	il	4G/	il	4d\	il	4g\	il	4dd\	il
2G/	tem-	2C/	tem-	2c/	tem-	2g\	tem-	2ee\	tem-
!	!	!	!	!	!	!	!	!LO:SIC:v:t=custos cc	!
2G/	-po	2C/	-po	2e\	-po	2g\	-po	2ee\	-po
!	!	!	!	!	!	!	!	!LO:LB:g=original	!
=4-	=4-	=4-	=4-	=4-	=4-	=4-	=4-	=4-	=4-
00r	.	4Fny/	Ch'el-	4f\	Ch'el-	4a\	Ch'el-	4cc\	Ch'el-
.	.	2F/	-la a	2f\	-la a	2a\	-la a	2cc\	-la a
!	!	!LO:SIC:v:t=custos D	!	!LO:SIC:v:t=custos d	!	!LO:SIC:v:t=custos f	!	!	!
.	.	4G/	ſe-	4d\	ſe-	4g\	ſe-	4b/	ſe-
!	!	!LO:LB:g=original	!	!LO:LB:g=original	!	!LO:LB:g=original	!	!	!
.	.	2D/	-der	2d\	-der	2f\	-der	2a/	-der
.	.	2E/	m'i-	2B/	m'i-	2e/	m'i-	2g#X/	m'i-
=5-	=5-	=5-	=5-	=5-	=5-	=5-	=5-	=5-	=5-
.	.	4.E/	-nuit-	4.B/	-nuit-	4.e/	-nuit-	4.gny/	-nuit-
.	.	8E/	-ri	8B/	-ri	8e/	-ri	8g/	-ri
.	.	4E/	la	4B/	la	4e/	la	4g/	la
.	.	4A/	bell'-	4c/	bell'-	4e/	bell'-	4a/	bell'-
.	.	2G/	-om-	2d\	-om-	2g\	-om-	2b/	-om-
.	.	2G/	-bra	2d\	-bra	2g\	-bra	2b/	-bra
=6-	=6-	=6-	=6-	=6-	=6-	=6-	=6-	=6-	=6-
2d\	E-	4r	.	4r	.	4r	.	2r	.
.	.	2G/	E	2g\	E	2bny\	E	.	.
!LO:SIC:v:t=custos a	!	!	!	!	!	!	!	!	!
2e\	-mi-	.	.	.	.	.	.	4r	.
.	.	2A/	mi	2e\	mi	2cc\	mi	2ee\	E
!LO:LB:g=original	!	!	!	!	!	!	!	!	!
2A/	-ri-	.	.	.	.	.	.	.	.
!	!	!	!	!	!	!	!	!LO:SIC:v:t=custos dd	!
.	.	2D/	ri-	2d\	ri-	2a\	ri-	2ff\	mi
2d\	-ten-	.	.	.	.	.	.	.	.
!	!	!	!	!	!	!	!	!LO:LB:g=original	!
.	.	2G/	-ten-	2B/	-ten-	2b\	-ten-	2dd\	ri-
=7-	=7-	=7-	=7-	=7-	=7-	=7-	=7-	=7-	=7-
2G/	-ga	.	.	.	.	.	.	.	.
.	.	2C/	-ga	2c/	-ga	2g\	-ga	2ee\	-ten-
*	*ij	*	*	*	*	*	*	*	*
2g\	e-	.	.	.	.	.	.	.	.
.	.	2c\	e	2g\	e	2e/	e	2ee\	-ga
2a\	-mi	.	.	.	.	.	.	.	.
.	.	2d\	mi	2f\	mi	2a\	mi	2dd\	e-
2d\	ri-	.	.	.	.	.	.	.	.
.	.	2G/	ri-	2d\	ri-	2b\	ri-	2gg\	-mi
=8-	=8-	=8-	=8-	=8-	=8-	=8-	=8-	=8-	=8-
2g\	-ten-	.	.	.	.	.	.	.	.
.	.	2c\	-teng'-	2e\	-teng'-	2cc\	-tẽ(n)g'-	4ee\	ri-
2cny/	-ga	.	.	.	.	.	.	4ee\	-ten-
.	.	4F/	-in	4f\	-in	4a\	-in	4cc\	-ga
1r	.	4.B-X\	quel	4.d\	quel	4.f\	quel	4.b-X/	quel
!	!	!LO:SIC:v:t=custos b	!	!	!	!	!	!	!
.	.	8B-\	be-	8d\	be-	8f\	be-	8b-/	be-
!	!	!LO:LB:g=original	!	!	!	!	!	!	!
.	.	4B-\	-a-	4d\	-a-	4f\	-a-	4b-/	-a-
!	!	!	!	!LO:SIC:v:t=custos c	!	!LO:SIC:v:t=custos e	!	!	!
.	.	4G/	-to	4d\	-to	4g\	-to	4b-/	-to
!	!	!	!	!LO:LB:g=original	!	!LO:LB:g=original	!	!	!
*	*Xij	*	*	*	*	*	*	*	*
=9-	=9-	=9-	=9-	=9-	=9-	=9-	=9-	=9-	=9-
1r	.	1A	col-	1c#X	col-	1e	col-	1a	col-
4r	.	2A/	-le	2c#/	-le	4e\	Dal	2a/	-le
4A/	Dal	.	.	.	.	4a\	ſor-	.	.
4B/	ſor-	2r	.	2r	.	4d/	-ger	2r	.
4c/	-ger	.	.	.	.	4e/	prim'-	.	.
=10-	=10-	=10-	=10-	=10-	=10-	=10-	=10-	=10-	=10-
4.d\	prim'-	0r	.	0r	.	4.f\	-al	4r	.
.	.	.	.	.	.	.	.	4a/	Dal
8c#X\	-al	.	.	.	.	8e\	di-	.	.
4d\	di-	.	.	.	.	4f#X\	-par-	4bny\	ſor-
4e\	-par-	.	.	.	.	4g\	-tir	4cc\	-ger
4f#X\	-tir	.	.	.	.	4a\	del	4.dd\	prim'-
!LO:SIC:v:t=custos gg	!	!	!	!	!	!	!	!	!
4g\	del	.	.	.	.	4b#X\	ſo-	.	.
.	.	.	.	.	.	.	.	8cc\	-al
!LO:LB:g=original	!	!	!	!	!	!	!	!	!
4.g\	ſo-	.	.	.	.	4.b#\	.	4dd\	di
!	!	!	!	!	!	!	!	!LO:SIC:v:t=custos ff	!
.	.	.	.	.	.	.	.	4ee\	par-
16f#\	.	.	.	.	.	16a\	.	.	.
16e\	.	.	.	.	.	16g\	.	.	.
!	!	!	!	!	!	!	!	!LO:LB:g=original	!
=11-	=11-	=11-	=11-	=11-	=11-	=11-	=11-	=11-	=11-
4d\	.	2r	.	2r	.	1a	.	4ff#X\	-tir
4cny/	.	.	.	.	.	.	.	2gg\	del
2d\	.	4r	.	4r	.	.	.	.	.
.	.	4D/	Dal	4d\	Dal	.	.	4ff#X\	ſo-
2B/	-le	4E/	ſor-	4G/	ſor-	2g\	-le	4gg\	.
.	.	4F/	-ger	4A/	-ger	.	.	8ff#\	.
.	.	.	.	.	.	.	.	8ee\	.
2r	.	4.G/	prim'-	4.B/	prim'-	4r	.	2dd\	-le
.	.	.	.	.	.	4d/	Dal	.	.
.	.	8F#X/	-al	8A/	-al	.	.	.	.
=12-	=12-	=12-	=12-	=12-	=12-	=12-	=12-	=12-	=12-
0r	.	4G/	di-	4B/	di-	4e\	ſor-	2r	.
!	!	!	!	!	!	!LO:SIC:v:t=custos g	!	!	!
.	.	4A/	-par-	4cny/	-par-	4fny\	-ger	.	.
!	!	!	!	!	!	!LO:LB:g=original	!	!	!
.	.	4Bny\	-tir	4d\	-tir	4.g\	prim'-	2gg\	Dal
.	.	4c\	del	4e\	del	.	.	.	.
.	.	.	.	.	.	8f\	-al	.	.
.	.	4.c\	ſo-	2e\	ſo-	4g\	di	2cc\	ſor-
.	.	.	.	.	.	4a\	par-	.	.
.	.	16B\	.	.	.	.	.	.	.
.	.	16A\	.	.	.	.	.	.	.
.	.	2G/	.	1g\	-le	4bny\	-tir	2dd\	-ger
.	.	.	.	.	.	4b\	del	.	.
=13-	=13-	=13-	=13-	=13-	=13-	=13-	=13-	=13-	=13-
4r	.	2C/	-le	.	.	4.cc\	ſo-	4.ee\	prim'-
4g\	Dal	.	.	.	.	.	.	.	.
.	.	.	.	.	.	8b\	.	8dd\	-al
!	!	!LO:SIC:v:t=custos c	!	!	!	!	!	!	!
4c\	ſor-	2r	.	2r	.	2a\	.	4ee\	di-
4d\	-ger	.	.	.	.	.	.	4ffny\	-par-
!	!	!LO:LB:g=original	!	!	!	!	!	!	!
4.e\	prim'-	4r	.	1r	.	4g\	-le	2gg\	-tir
.	.	4c\	al	.	.	4g\	al	.	.
8d\	-al	.	.	.	.	.	.	.	.
4e\	di-	4c\	di-	.	.	4a\	di-	2r	.
4fny\	-par-	4d\	-par-	.	.	4b\	-par-	.	.
=14-	=14-	=14-	=14-	=14-	=14-	=14-	=14-	=14-	=14-
4g\	-tir	4e\	-tir	0r	.	2cc\	-tir	4r	.
4a\	del	4f\	del	.	.	.	.	4cc\	al
4.a\	ſo-	4.f\	ſo-	.	.	4r	.	4cc\	di-
.	.	.	.	.	.	4a\	del	4dd\	-par-
16g\	.	16e\	.	.	.	.	.	.	.
!LO:SIC:v:t=custos g	!	!	!	!	!	!	!	!	!
16f\	.	16d\	.	.	.	.	.	.	.
!LO:LB:g=original	!	!	!	!	!	!	!	!	!
1g	.	4c\	.	.	.	1cc	ſo-	4ee\	-tir
.	.	4B-X\	.	.	.	.	.	2ff\	de
.	.	2c\	.	.	.	.	.	.	.
!	!	!	!	!	!	!	!	!LO:SIC:v:t=custos ff	!
.	.	.	.	.	.	.	.	4ee\	ſo-
!	!	!	!	!	!	!	!	!LO:LB:g=original	!
=15-	=15-	=15-	=15-	=15-	=15-	=15-	=15-	=15-	=15-
2f\	-le	1Fny	-le	4r	.	2cc\	-le	2ff\	-le
.	.	.	.	4f\	So-	.	.	.	.
4r	.	.	.	4.f\	-uen-	4r	.	4r	.
4f\	So-	.	.	.	.	4a\	So-	4cc\	So-
!	!	!	!	!LO:SIC:v:t=custos a	!	!	!	!	!
.	.	.	.	8g\	-te	.	.	.	.
!	!	!	!	!LO:LB:g=original	!	!	!	!	!
4.f\	-uen-	1r	.	4a\	la	4.a\	-uen-	4.cc\	-uen-
.	.	.	.	4f\	gen-	.	.	.	.
8d\	-te	.	.	.	.	8b\	-te	8dd\	-te
4c\	la	.	.	2g\	-til	4cc\	la	4ee\	la
4c\	gen-	.	.	.	.	4g\	gen-	4cc\	gen-
=16-	=16-	=16-	=16-	=16-	=16-	=16-	=16-	=16-	=16-
!	!	!	!	!	!	!LO:SIC:v:t=custos g	!	!	!
2g\	-til	0r	.	4r	.	2b\	-til	2dd\	-til
.	.	.	.	4.g\	can-	.	.	.	.
!	!	!	!	!	!	!LO:LB:g=original	!	!	!
4.G/	can-	.	.	.	.	4.g\	can-	4.b/	can-
.	.	.	.	8g\	-di-	.	.	.	.
.	.	.	.	2e\	-da	.	.	.	.
8G/	-di-	.	.	.	.	8g\	-di-	8b/	-di-
2A/	-da	.	.	.	.	2cc\	-da	2ee\	-da
.	.	.	.	2a\	ma-	.	.	.	.
2e\	ma-	.	.	.	.	2b\	ma-	2ee\	ma-
.	.	.	.	4g#X\	.	.	.	.	.
=17-	=17-	=17-	=17-	=17-	=17-	=17-	=17-	=17-	=17-
4A/	-no	1r	.	2a\	-no	4a\	-no	4ee\	-no
4d\	Ver	.	.	.	.	4f#X\	Ve	4a/	Ver
4B/	me	.	.	2r	.	4g\	me	4b\	me
4A/	por-	.	.	.	.	4a\	por-	4cc\	por-
2G/	-gen-	2r	.	2r	.	2b\	-gen-	2dd\	-gen-
4G/	-do	4r	.	4r	.	2b\	-do	2dd\	-do
!LO:SIC:v:t=custos c	!	!	!	!	!	!	!	!	!
4B/	Ver	4G/	Ver	4d\	Ver	.	.	.	.
!LO:LB:g=original	!	!	!	!	!	!	!	!	!
=18-	=18-	=18-	=18-	=18-	=18-	=18-	=18-	=18-	=18-
4c/	me	4E/	me	4e\	me	2r	.	2r	.
4d\	por-	4D/	por-	4f\	por-	.	.	.	.
2e\	-gen-	2C/	-gen-	2gny\	-gen-	1cc	co-	1ee	co-
!	!	!LO:SIC:v:t=custos G	!	!	!	!	!	!	!
2e\	-do	2C/	-do	2g\	-do	.	.	.	.
!	!	!LO:LB:g=original	!	!	!	!	!	!	!
2r	.	4G/	co-	4d\	co-	2g\	-me	2b/	-me
.	.	4G/	-me	4d\	-me	.	.	.	.
=19-	=19-	=19-	=19-	=19-	=19-	=19-	=19-	=19-	=19-
0r	.	2A/	fè	2a\	fè	2e/	fè	2.cc\	fe
!	!	!	!	!LO:SIC:v:t=custos d	!	!	!	!	!
.	.	2F/	quel	4A/	quel	2a\	quel	.	.
!	!	!	!	!LO:LB:g=original	!	!	!	!	!
.	.	.	.	2d\	gior-	.	.	4dd\	quel
.	.	1E	gior-	.	.	1g	gior-	1ee	gior-
.	.	.	.	8c\	.	.	.	.	.
.	.	.	.	8B/	.	.	.	.	.
.	.	.	.	2c#X/	.	.	.	.	.
=20-	=20-	=20-	=20-	=20-	=20-	=20-	=20-	=20-	=20-
4r	.	4D/	-no	2d\	-no	2fny\	-no	1a	-no
4f\	So-	4d\	So-	.	.	.	.	.	.
4.f\	-uen-	4.d\	-uen-	2r	.	4r	.	.	.
.	.	.	.	.	.	4a\	So-	.	.
8g\	-te	8e\	-te	.	.	.	.	.	.
4a\	la	4f\	la	1r	.	4.a\	-uen-	4r	.
4f\	gen-	4d\	gen-	.	.	.	.	4dd\	So-
.	.	.	.	.	.	8b\	-te	.	.
2g\	-til	1c\	-til	.	.	4cc\	la	4.ee\	-uen-
!	!	!	!	!	!	!LO:SIC:v:t=custos cc	!	!	!
.	.	.	.	.	.	4g\	gen-	.	.
.	.	.	.	.	.	.	.	8ff\	-te
!	!	!	!	!	!	!LO:LB:g=original	!	!	!
=21-	=21-	=21-	=21-	=21-	=21-	=21-	=21-	=21-	=21-
4.g\	can-	.	.	0r	.	4cc\	-til	4gg\	la
.	.	.	.	.	.	4.cc\	can-	4ee\	gen-
8g\	-di-	.	.	.	.	.	.	.	.
2g\	-da	4.G/	can-	.	.	.	.	4dd\	-til
.	.	.	.	.	.	8b\	-di-	.	.
.	.	.	.	.	.	2b\	-da	4.ee\	can-
.	.	8G/	-di-	.	.	.	.	.	.
1e	ma-	2A\	-da	.	.	.	.	.	.
.	.	.	.	.	.	.	.	8dd\	-di-
.	.	.	.	.	.	2a\	ma-	4cc\	-da
.	.	2e\	ma-	.	.	.	.	2b/	ma-
.	.	.	.	.	.	4g#X\	.	.	.
=22-	=22-	=22-	=22-	=22-	=22-	=22-	=22-	=22-	=22-
2e\	-no	1A	-no	4r	.	1a	-no	1cc	-no
.	.	.	.	4a\	Ver	.	.	.	.
2r	.	.	.	4f\	me	.	.	.	.
.	.	.	.	4e\	por-	.	.	.	.
1r	.	4r	.	2d\	-gen-	4r	.	4r	.
.	.	4d\	Ver	.	.	4f#X\	Ver	4a/	Ver
.	.	4Bny\	me	2d\	-do	4gny\	me	4b/	me
!	!	!LO:SIC:v:t=custos G	!	!	!	!	!	!	!
.	.	4A\	por-	.	.	4a\	por-	4cc\	por-
!	!	!LO:LB:g=original	!	!	!	!	!	!	!
=23-	=23-	=23-	=23-	=23-	=23-	=23-	=23-	=23-	=23-
2r	.	2G/	-gen-	4r	.	1b	-gen-	2dd\	-gen-
*	*	*	*	*	*ij	*	*	*	*
.	.	.	.	4g\	Ver	.	.	.	.
4r	.	2G/	-do	4e\	me	.	.	4g/	-do
!LO:SIC:v:t=custos e	!	!	!	!	!	!	!	!	!
4g\	Ver	.	.	4d\	por-	.	.	4dd\	Ver
!LO:LB:g=original	!	!	!	!	!	!	!	!	!
4e\	me	1r	.	2cny/	-gen-	1cc	-do	4ee\	me
!	!	!	!	!	!	!	!	!LO:SIC:v:t=custos gg	!
4d\	por-	.	.	.	.	.	.	4ff\	por-
!	!	!	!	!	!	!	!	!LO:LB:g=original	!
2c/	-gen-	.	.	2e\	-do	.	.	2gg\	-gẽ(n)-
*	*	*	*	*	*Xij	*	*	*	*
=24-	=24-	=24-	=24-	=24-	=24-	=24-	=24-	=24-	=24-
0c	-do	4r	.	4r	.	4r	.	2ee\	-do
.	.	4c\	Ver	4e\	Ver	4g\	Ver	.	.
.	.	4A/	me	4f\	me	4a\	me	1cc	co-
!	!	!	!	!LO:SIC:v:t=custos a	!	!	!	!	!
.	.	4G/	por-	4g\	por-	4b\	por-	.	.
!	!	!	!	!LO:LB:g=original	!	!	!	!	!
.	.	1F	-gen-	1a	-gen-	1cc	-gen-	.	.
.	.	.	.	.	.	.	.	2ff\	-me
=25-	=25-	=25-	=25-	=25-	=25-	=25-	=25-	=25-	=25-
2r	.	1C	-do	2g\	-do	2cc\	-do	1.ee	fe
1e	co-	.	.	1c	co-	2g\	co-	.	.
!	!	!	!	!	!	!LO:SIC:v:t=custos b	!	!	!
.	.	1r	.	.	.	2a\	-me	.	.
!	!	!	!	!	!	!LO:LB:g=original	!	!	!
2B/	-me	.	.	2d\	-me	2.b\	fe	2dd\	quel
=26-	=26-	=26-	=26-	=26-	=26-	=26-	=26-	=26-	=26-
2.c/	fè	0r	.	2e\	fè	.	.	1cc	gior-
.	.	.	.	.	.	4a\	quel	.	.
.	.	.	.	2A/	quel	2.a\	gior-	.	.
4d\	quel	.	.	.	.	.	.	.	.
1e	gior-	.	.	2E/	gior-	.	.	1b	-no
.	.	.	.	.	.	8g#X\	.	.	.
.	.	.	.	.	.	8f#X\	.	.	.
.	.	.	.	2E/	-no	2g#X\	.	.	.
=27-	=27-	=27-	=27-	=27-	=27-	=27-	=27-	=27-	=27-
2A/	-no	2r	.	4r	.	2a\	-no	4r	.
.	.	.	.	4e\	Ver	.	.	4a/	Ver
2e\	Ver	1A	co-	4c/	me	2A/	Ver	4cc\	me
.	.	.	.	4B/	por-	.	.	4dd\	por-
4e\	me	.	.	2A/	-gen-	4c/	me	1ee	-gen-
4f\	por-	.	.	.	.	4d/	por-	.	.
2g\	-gen-	2E/	-me	2B/	-do	2e\	-gen-	.	.
=28-	=28-	=28-	=28-	=28-	=28-	=28-	=28-	=28-	=28-
1a	-do	2.F/	fè	2r	.	2A/	-do	2cc\	-do
.	.	.	.	1c	co-	2.a\	co-	1cc	co-
.	.	4G/	quel	.	.	.	.	.	.
2e\	co-	0.A	gior-	.	.	.	.	.	.
.	.	.	.	.	.	4e\	-me	.	.
!LO:SIC:v:t=custos c	!	!	!	!	!	!	!	!	!
2d\	-me	.	.	2d\	-me	4.fny\	fè	2ff\	-me
.	.	.	.	.	.	8gny\	quel	.	.
!LO:LB:g=original	!	!	!	!	!	!	!	!	!
=29-	=29-	=29-	=29-	=29-	=29-	=29-	=29-	=29-	=29-
2c#X/	fè	.	.	2e\	fè-	0a	gior-	4ee\	fe
.	.	.	.	.	.	.	.	2ee\	quel
2d\	quel	.	.	2f\	-quel	.	.	.	.
.	.	.	.	.	.	.	.	2dd\	gior-
1e	gior-	.	.	1e	gior-	.	.	.	.
.	.	.	.	.	.	.	.	8cc\	.
.	.	.	.	.	.	.	.	8b\	.
.	.	.	.	.	.	.	.	2cc#X\	.
=30-	=30-	=30-	=30-	=30-	=30-	=30-	=30-	=30-	=30-
00f#X	-no.	00D	-no.	00d	-no.	00a	-no	00dd	-no.
==	==	==	==	==	==	==	==	==	==
*-	*-	*-	*-	*-	*-	*-	*-	*-	*-
!!!system-decoration: [(s1,s2,s3,s4,s5)]
!!!ENC: Andrzej Gręziak
!!!END: 2022-06-07
!!!ENC: Jan Barakat
!!!END: 2022-07-18
